<?xml version="1.0" encoding="UTF-8"?>
<map version="1.10" tiledversion="1.11.1" orientation="orthogonal" renderorder="right-down" width="16" height="16" tilewidth="16" tileheight="16" infinite="0" nextlayerid="2" nextobjectid="1">
 <tileset firstgid="1" name="first_cave" tilewidth="16" tileheight="16" tilecount="80" columns="16">
  <image source="../tilemap.png" width="256" height="80"/>
 </tileset>
 <layer id="1" name="Tile Layer 1" width="16" height="16">
  <data encoding="csv">
33,34,33,34,33,34,33,34,33,34,33,34,33,34,33,34,
49,50,49,50,49,50,49,50,49,50,49,50,49,50,49,50,
33,34,33,34,1,1,1,2,1,34,33,34,33,34,33,34,
49,50,49,1,1,1,1,11,1,50,49,50,49,50,49,50,
33,34,33,1,1,1,1,27,1,34,33,34,33,34,33,34,
49,50,49,1,1,1,49,2,49,50,49,50,49,50,49,50,
33,34,33,1,1,2,2,2,2,2,33,34,2,2,33,34,
49,50,49,1,1,1,1,1,1,1,1,1,1,50,49,50,
33,34,33,1,1,1,1,1,1,1,1,1,1,34,33,34,
49,50,49,50,49,1,1,1,1,1,1,2,2,50,49,50,
33,34,2,34,2,1,2,2,2,1,2,34,33,34,33,34,
49,50,49,50,49,1,1,1,1,1,1,50,49,50,49,50,
33,34,33,34,33,34,33,34,33,34,33,34,33,34,33,34,
49,50,49,50,49,50,49,50,49,50,49,50,49,50,49,50,
33,34,33,34,33,34,33,34,33,34,33,34,33,34,33,34,
49,50,49,50,49,50,49,50,49,50,49,50,49,50,49,50
</data>
 </layer>
</map>
